X:1
T:Scene (Entrance of Pages)
T:Scene (Entrance of Pages)
T:Swan Lake, Piano Arrangement for 3 hands
T:Hinci
C:Hinci
%%score { ( 1 5 ) | ( 2 4 ) | 3 }
L:1/8
Q:1/4=128
M:4/4
K:C
V:1 treble nm="Piano" snm="Pno."
V:5 treble 
V:2 bass 
V:4 bass 
V:3 bass 
V:1
!f!"^Allegro moderato." A,2- (3(A,B,^C) (3(DCB,) .C2 | ^C2- (3(CDE) (3(^FED) .E2 | %2
 E2 (^F>E) D2 (E>D) | ^C2 (3(A^G^F) (3(E^DF) (3(ECB,) |!f! A,2- (3(A,B,^C) (3(DCB,) .C2 | %5
 ^C2- (3(CDE) (3(^FED) .E2 | E2 (A>^G) ^F2 (G>F) | E2 (A>^G) (3(^FGF)!f! E z | %8
 A,2- (3(A,B,^C) (3(DCB,) .C2 | ^C2- (3(CDE) (3(^FED) .E2 | E2 (^F>E) D2 (E>D) | %11
 ^C2 (3(A^G^F) (3(E^DF) (3(EDC) |!mp! (3(^de).^f (3(^gf).e (3(de).f (3(ed).^c | %13
 (3.^d.e.^f (3.^c.d.e (3.^B.c.d (3(^GB).c | (3(b^c').d' (3(e'd').c' (3(bc').d' (3(c'b).a | %15
 (3.^g.a.b (3.^f.g.a (3.^e.f.g (3(^ce).f |!p! (3(E^F).G (3(AG).F (3(EF).G (3(FE).D | %17
 (3.E.^F.G (3.D.E.F (3.^C.D.E (3(A,B,).C |"_cresc." (3.D.E.^F (3.A,.B,.^C (3.D.E.F (3.B,.C.^D | %19
 (3.E.^F.G (3.B,.^C.^D (3.E.F.G (3.B,.C.D | (3.E.^F.G (3.B,.^C.^D (3.E.F.^G (3.C.D.=F | %21
 (3.^F.^G.A (3.^C.^D.=F (3.^F.G.A (3.C.D.=F | (3.^F.^G.A (3.^C.^D.=F (3.^F.=G.A (3.=D.E.F | %23
!mf! (3.G.A.B"_cresc." (3.D.^F.G (3.^G.A.B (3.E.F.G | (3.A.B.^c (3.E.^G.A (3.^A.B.c (3.^F.G.A | %25
 (3.B.^c.d (3.G.A.B (3.=c.d.e (3.A.B.^c | (3.d.e.^f (3.B.^c.^d (3.e.f.g (3.c.d.=f | %27
 (3.^f.^g.a (3.^c.^d.=f (3.^f.g.a (3.c.d.=f | (3.^f.g.a (3.f.g.a (3.b.^c'.d' (3.b.c'.d' | %29
!ff! (3[^cea^c'][^CA][EB] (3:2:2[Ac]2 [Bd] (3:2:2[ce]2 [Ac]!ped! !>![ce]2!ped! | %30
 z2 (3z [ee'][^f^f'] (3[gg'][ff'][gg'] (3[^g^g'][=g=g'][^g^g']!ped-up! | %31
 (3[ea^c'a'][^CA][EB] (3:2:2[A^c]2 [Bd] (3:2:2[ce]2 [Ac]!ped! !>![ce]2!ped!!ped-up! | %32
 z2 (3z [ee'][^f^f'] (3[gg'][ff'][gg'] (3[^g^g'][=g=g'][^g^g']!ped-up! | %33
 (3[ea^c'a'][^CA][EB] (3:2:2[A^c]2 [Bd] (3[ce][Ac][Ac] (3[ce][Ac][Ac] | %34
 (3[^ce][Ac][Ac] (3[ce][Ac][Ac] (3[ce][Ac][Ac] (3[ce][Ac][Ac] | %35
!f! [A,-A]2!ped! (3(A,B,^C) (3(DCB,) .C2!ped-up! | ^C2- (3(CDE) (3(^FED) .E2 | E2 (^F>E) D2 (E>D) | %38
 ^C2 (3(A^G^F) (3(E^DF) (3(ECB,) |!f! A,2- (3(A,B,^C) (3(DCB,) .C2 | ^C2- (3(CDE) (3(^FED) .E2 | %41
 E2 (A>^G) ^F2 (G>F) | E2 (A>^G) (3(^FGF E) z |!mp!"^dolce" ([Ee]2!ped! [Ff]2 [Gg]4)!ped-up! | %44
 ([Dd]2!ped! [Ee]2 [Cc]4)!ped-up! | ([Gg]2!ped! [cc']2 [Bb]2 [Aa]2)!ped-up! | %46
 ([^G^g]2!ped! [Aa]2) ([Dd]2 [=G=g]2)!ped-up! | ([Ee]2!ped! [Ff]2 [Gg]4)!ped-up! | %48
 ([Dd]2 [Ee]2 [Cc]4) | ([Gg]2!ped! [cc']2 [Bb]2 [Aa]2)!ped-up! | %50
!<(! ([Ee]2!ped! [^F^f]2!<)!!mf! [Gg]4)!ped-up! | ([Bb]2!ped! [cc']2 [dd']4)!ped-up! | %52
 ([^f^f']2!ped! [ee']2 [dd']4)!ped-up! | ([ee']2!ped! [Bb]2) ([ee']2 [Aa]2)!ped-up! | %54
 ([ee']2 [cc']2) ([ee']2 [Gg]2) | ([Bb]2!ped! [cc']2 [dd']4)!ped-up! | %56
 ([^f^f']2!ped! [ee']2 [dd']4)!ped-up! | ([ee']2!ped! [Bb]2) ([ee']2 [Aa]2)!ped-up! | %58
 ([ee']2 [cc']2) ([ee']2 [Gg]2) |!mp! (d'2 c'2) (c'2 b2) | (c'2 b2) (b2 a2) | %61
"^rall."[Q:1/4=122] (a2 g2)[Q:1/4=116] (g2 ^f2) |[Q:1/4=108] (g2 ^f2)[Q:1/4=100] (g2 =f2) | %63
!mp!"^dolce"[Q:1/4=128] ([Ee]2!ped! [Ff]2 [Gg]4)!ped-up! | ([Dd]2!ped! [Ee]2 [Cc]4)!ped-up! | %65
 ([Gg]2!ped! [cc']2 [Bb]2 [Aa]2)!ped-up! | ([^G^g]2!ped! [Aa]2) ([Dd]2 [=G=g]2)!ped-up! | %67
 ([Ee]2!ped! [Ff]2 [Gg]4)!ped-up! | ([Dd]2 [Ee]2 [Cc]4) | ([Cc]2 [Ff]2 [Ee]2 [Dd]2) | %70
 ([A,A]2 [B,B]2 [Cc]4) | ([Gg]2 [Ff]2 [Ee]2 [Dd]2) | ([A,A]2 [B,B]2 [Cc]4) | ([Dd]4 [Ee]2 [Cc]2) | %74
 ([Dd]2 [Gg]2 [Ee]4) | ([Dd]4 [Ee]2 [Cc]2) | ([Dd]2 [Gg]2 [Cc]2) z2 | z8 | z4!f! [Ee-]2 (3(eBc) | %79
 (3(^c^de) (3(^f^ga) ([fg]2 f2 | [Ee]2) z2 z4 | z8 | z4 [_A_a]2- (3([Aa][_E_e][=E=e]) | %83
 (3([Ff][Gg][_A_a]) (3([_B_b][cc'][_d_d']) ([cc']2 [Bb]2 | [_A_a]2) z2 ([C_Ec]2 [_DF_d]2 | %85
 [_EG_e]4) ([_B,_D_B]2 [CEc]2 | [_A,C_A]4) ([_E_e]2 [Ae_a]2) | ([Geg]2 [Ff]2) ([EGe]2 [Ff]2) | %88
 ([_B,G_B]2 [_E_e]2) ([CEc]2 [_DF_d]2 | [_EG_e]4) ([_B,_D_B]2 [CEc]2 | %90
 [_A,C_A]4) ([_E_e]2 [Ae_a]2) | ([Geg]2 [Ff]2 [_E_G_e]2 [_D=G_d]2) | %92
 ([B,^GB]2 [Cc]2)!ff! ._A,2 ._B,2 | (3CB,C (3DCD (3_EDE (3FEF | GF_ED (3CDC (3B,CB, | %95
 (3G^FG (3AGA (3!>![_Bd]cB (3!>![A_e]BA | (3[Ge][Ad][Ge] (3[c^f][de][cf] [_Bg] z z2 | z8 | %98
 z4 D2 E2 | (3FEF (3G^FG (3!>![Ac]_BA (3!>![G_d]AG | %100
 (3[Fd][G^c][Fd] (3[_Be][cd][Be] (3[Af]ga (3fga | (3fga (3fga (3d'e'f' (3d'e'f' | %102
 (3d'e'f' (3d'e'f' (3^f'g'a' (3^fga | (3^gab (3gab!>(! (3a=g^f (3ed^c | %104
 (3B^cd (3ABc (3GAB (3^FGA!>)! | %105
!mp!"^accel."[Q:1/4=131]!<(! E/^D/E/^F/[Q:1/4=134] G/F/G/^G/[Q:1/4=137] A/G/A/B/!<)!!mf![Q:1/4=140]!<(! ^c/B/c/d/ | %106
[Q:1/4=143] e/^d/e/^f/[Q:1/4=146] g/f/g/^g/!<)!!f![Q:1/4=149] a/g/a/^a/[Q:1/4=150] b/a/b/^c'/ | %107
[Q:1/4=152] !>![d^fd']2 !>![dgd']2 !>![d^gd']2 !>![dad']2 | %108
 !>![d^ad']2 !>![bd']/^c'/d'/e'/ !>!.[^f=a^f']!>!.[eae']!>!.[dad'][Aa] | %109
 !>![d^fad']!f!(^c'/b/) (a/b/a/g/) (f/e/d/e/) (f/e/f/g/) | %110
 (a/g/^f/g/) (a/b/^c'/d'/) !>!.[ec'e']!>!.[fd'^f']!>!.[ec'e'][Afa] | %111
 !>![d^fd']2 !>![dgd']2 !>![d^gd']2 !>![dad']2 | %112
 !>![d^ad']2 !>![bd']/^c'/d'/e'/ !>!.[^f=a^f']!>!.[eae']!>!.[dad'][Aa] | %113
 !>![d^fad']!f!(^c'/b/) (a/b/a/g/) (f/e/d/e/) (f/e/f/g/) | %114
 (a/g/^f/g/) (a/b/^c'/d'/) !>!.[ec'e']!>!.[fd'^f']!>!.[dad']!>![A,A] | %115
 !>!B,2 !>!B,2 !>!B,2 !>!B,!>!^C | !>![A^cea](c/e/) (a/e/a/b/) (^c'/b/c'/d'/ e')!>![A,A] | %117
 !>!B,2 !>!B,2 !>!B,2 !>!B,!>!^C | %118
 !>![A^cea](c/e/) (a/e/a/b/) (^c'/b/c'/d'/) ([c'e']/[^b^d']/[c'e']) | %119
!f! ([^c'e']/[^b^d']/[c'e']) ([c'e']/[bd']/[c'e']) ([=b=d']/[^ac']/[bd']) ([bd']/[ac']/[bd']) | %120
 ([bd']/[^a^c']/[bd']) ([bd']/[ac']/[bd']) ([=ac']/[^gb]/[ac']) (c'/a/b/c'/) | %121
!f! !>![d^fad'][^c^c'][Bb][Aa] [Gg][^Ff]!>![Bdfb][Aa] | %122
 !>![d^fad'][^c^c'][Bb][Aa] [Gg][^Ff]!>![Bdfb][Aa] | %123
 !>![d^fad'][^c^c'][Bb][Aa] !>![dfad'][cc']!>![df^ad'][ee'] | %124
 !>![^f^f']2 !>![ee'][ff'] [dfad']2 z2 |] %125
V:2
 A,,2- (3(A,,B,,^C,) (3(D,C,B,,) .C,2 | ^C,2- (3(C,D,E,) (3(^F,E,D,) .E,2 | %2
!mp! .[G,B,^C]2 .[^F,^A,C]2 .[=A,B,]2 .[E,^G,B,]2 | .[A,,^C,A,]2 .[^F,A,^C^D]2 .[C,^G,C]2 z2 | %4
 A,,2- (3(A,,B,,^C,) (3(D,C,B,,) .C,2 | ^C,2- (3(C,D,E,) (3(^F,E,D,) .E,2 | %6
!mp! .[^G,B,]2 .[^F,A,^C^F]2 .[A,B,^D]2 .[A,=CD]2 | %7
 .[^C,^G,^C]2 .[^F,A,CE]2 .[A,B,^D]2 (3([E,G,B,]D,B,,) | A,,2- (3(A,,B,,^C,) (3(D,C,B,,) .C,2 | %9
 ^C,2- (3(C,D,E,) (3(^F,E,D,) .E,2 |!mp! .[G,B,^C]2 .[^F,^A,C]2 .[=A,B,]2 .[E,^G,B,]2 | %11
 .[A,,^C,A,]2 .[^F,A,^C^D]2 .[C,^G,C]2 z2 | %12
!p! [^D,^F,A,^C] z [^C,E,^G,C] z [D,F,A,C] z [C,E,G,C] z | %13
 [^F,A,^C^D] z [^G,CE] z [G,D^F] z [G,CE] z |[K:treble] [E^Gde] z [EA^ce] z [EGBe] z [EAce] z | %15
 [^F^GBd] z [FA^c] z [^C=FBc] z [^FA] z | %16
[K:bass] [A,,^C,E,G,] z [A,,D,^F,] z [A,,C,E,] z [A,,D,F,] z | %17
 [G,,B,,D,E,] z [A,,D,^F,] z [G,,A,,E,] z z2 | D,4 (!>!C,2 B,,>A,,) | G,,4 !>!B,,4 | %20
 (!>![E,G,]4 (!>![D,^G,]2) ^C,>B,,) | !>!A,,4 !>!^C,4 | ^F,4 (E,2 D,>C,) | (B,,2 G,2) (F,2 E,>D,) | %24
 (^C,2 A,2) (G,2 ^F,>E,) | D,B,,G,F, E,C,A,G, | ^F,D,B,A, G,E,^CB, | A,^F,^CB, A,F,C!<(!B, | %28
 !///-!^F,2 A,,2!<)!!f! !///-!E,2 ^G,,2 | %29
!ff! (3[A,,A,][^C,A,][E,B,] (3:2:2[A,^C]2 [B,D] (3:2:2[CE]2 [A,C] !>![CE]2 | %30
 .[_B,,_B,] z .[G,,G,] z .[E,,E,] z .[_B,,,B,,] z | %31
 (3[A,,A,][^C,A,][E,B,] (3:2:2[A,^C]2 [B,D] (3:2:2[CE]2 [A,C] !>![CE]2 | %32
 .[_B,,_B,] z .[G,,G,] z .[E,,E,] z .[_B,,,B,,] z | %33
 (3[A,,A,][^C,A,][E,B,] (3:2:2[A,^C]2 [B,D] (3[CE][A,C][A,C] (3[CE][A,C][A,C] | %34
 (3[^CE][A,C][A,C] (3[CE][A,C][A,C] (3[CE][A,C][A,C] (3[CE][A,C][A,C] | %35
 [A,,-A,]2 (3(A,,B,,^C,) (3(D,C,B,,) .C,2 | ^C,2- (3(C,D,E,) (3(^F,E,D,) .E,2 | %37
!mp! .[G,B,^C]2 .[^F,^A,C]2 .[=A,B,]2 .[E,^G,B,]2 | .[A,,^C,A,]2 .[^F,A,^C^D]2 .[C,^G,C]2 z2 | %39
 A,,2- (3(A,,B,,^C,) (3(D,C,B,,) .C,2 | ^C,2- (3(C,D,E,) (3(^F,E,D,) .E,2 | %41
!mp! .[^G,B,]2 .[^F,A,^C^F]2 .[A,B,^D]2 .[A,=CD]2 | .[^C,^G,^C]2 .[^F,A,CE]2 .[A,B,^D]2 [E,G,] z | %43
[K:treble] [CE]4 [DF]4- | [DF]4 [CE]4 | [CE]8 | [A,D]4 [B,D]4 | [CE]4 [DF]4- | [DF]4 [CE]4 | %49
 [CE]8 | [A,^F]4 [B,G]4 | [DG]4 [C^F]4 | [^F^A]4 [GB]4 | [DF]4 ([CE]4 | [C^F]4) [B,G]4 | %55
 [DG]4 [C^F]4 | [^F^A]4 [GB]4 | [DF]4 ([CE]4 | [C^F]4) [B,G]4 |[K:bass] [G,D]8 | G,8 | G,8 | G,8 | %63
[K:treble] [CE]4 [DF]4- | [DF]4 [CE]4 |[K:bass] [CE]8 | [A,D]4 [B,D]4 | [CE]4 [DF]4- | %68
 [DF]4 [CE]4 | ([C,A,]4 _A,4) | ([G,,G,]2 [F,G,]2) ([C,^D,G,]2 E,2) | %71
 ([^C,^C]2 [D,D]2 [=C,_A,=C]4) | (G,2 [F,G,]2) ([^D,G,]2 E,2) | F,4 (G,2 E,2) | F,4 (G,2 C2) | %75
 F,4 (G,2 E,2) | (F,4!mf! [C,,-C,-E,]2) (3([C,,C,][D,,D,][E,,E,]) | %77
 (3([F,,F,][E,,E,][D,,D,]) [E,,E,]2 [E,,E,]2- (3([E,,E,][^F,,^F,][^G,,^G,]) | %78
 (3([A,,A,][^G,,^G,][=G,,=G,]) [^G,,^G,]2 [E,,G,,E,G,]2 [D,D]2 | %79
 [^C,^C]2 [=C,=C]2 [B,,B,]2 [A,,A,]2 | [^G,,^G,]2 z2 [E,,E,]2- (3([E,,E,][^F,,^F,][G,,G,]) | %81
 (3([A,,A,][^G,,^G,][^^F,,^^F,]) [G,,G,]2 [G,,G,]2- (3([G,,G,][^A,,^A,][C,C]) | %82
 (3([_D,_D][C,C][B,,B,]) [C,C]2 [_A,C_A]2 [_G,_G]2 | [F,F]2 [E,E]2 [_E,_E]2 [D,D]2 | %84
 [_A,_A]2 z2 _A,,4- | A,,4 _A,,4- | A,,4 (C,2 _A,,2) | (_D,2 _A,,2) (D,2 A,,2) | %88
 (_E,2 _A,,2) A,,4- | A,,4 _A,,4- | A,,4 (C,2 _A,,2) | (_D,2 _A,,2) (_E,2 A,,2) | (_E,2 _A,,2) z4 | %93
 z4 G,,2 A,,2 | (3_B,,A,,B,, (3=B,,^A,,B,, (3C,B,,C, (3D,C,D, | (3_B,A,B, (3CB,C (3D_ED z2 | %96
 (3_B,CB, (3A,B,A, G,2 A,2 | (3_B,A,B, (3CB,C (3D^CD (3_EDE | F_EDC (3_B,CB, (3B,A,B, | %99
 (3A,^G,A, (3_B,A,B, (3CDC (3B,CB, | (3A,_B,A, (3G,A,G, F, z z2 | D2 C2 [B,,D,F,^G,B,] z z2 | %102
 B,2 _B,2 [D,^F,A,] z z2 | [D,F,A,B,] z z2 [E,A,^C] z z2 | z8 | z8 | z8 | %107
 [D,^F,D]2 [D,G,D]2 [D,^G,D]2 [D,A,D]2 | [D,^A,D]2 [D,B,D]2 .[D,^F,=A,D^F].[D,E,A,DE].[D,F,D] z | %109
 !>![D,^F,A,D]!8va(!(A/G/) (^F/G/F/E/) (D/^C/B,/C/) (D/C/D/E/) | %110
 (^F/E/D/E/) (F/G/A/B/)!8va)!!ff! !>!.[E,^CE]!>!.[^F,DF]!>!.[E,CE][A,,F,A,] | %111
 [D,^F,D]2 [D,G,D]2 [D,^G,D]2 [D,A,D]2 | [D,^A,D]2 [D,B,D]2 .[D,^F,=A,D^F].[D,E,A,DE].[D,F,D] z | %113
 !>![D,^F,A,D]!8va(!(A/G/) (^F/G/F/E/) (D/^C/B,/C/) (D/C/D/E/) | %114
 ((^F/E/D/E/)) (F/G/A/B/)!8va)!!ff! !>!.[E,^CE]!>!.[^F,DF]!>!.[D,A,D]!>!A,, | %115
 !>!B,,2 !>!B,,2 !>!B,,2 !>!B,,!>!^C, | %116
 !>![A,,^C,E,A,][K:treble](^C/E/) (A/E/A/B/) (^c/B/c/d/ e)[K:bass]!>!A,, | %117
 !>!B,,2 !>!B,,2 !>!B,,2 !>!B,,!>!^C, | %118
 !>![A,,^C,E,A,][K:treble](^C/E/) (A/E/A/B/) (^c/B/c/d/ e) z | %119
[K:bass] !>![^F,,^F,]2 !>![^G,,^G,]!>![^A,,^A,] !>![B,,D,F,B,] z z2 | %120
 !>![E,,E,]2 !>![^F,,^F,]!>![^G,,^G,] !>![A,,^C,E,A,]2 z2 | %121
 !>![D,A,D] z z !>![D,A,D]/!>![D,A,D]/ !>![D,A,D]!>![D,A,D]!>![E,B,E]!>![E,^CE] | %122
 !>![D,A,D] z z !>![D,A,D]/!>![D,A,D]/ !>![D,A,D]!>![D,A,D]!>![E,B,E]!>![E,^CE] | %123
!f! !>![D,^F,D]4 !>![G,,G,]2 !>![^G,,^G,]2 | !>![A,,A,]2 !>!A,,2 !>![D,^F,A,D]2 z2 |] %125
V:3
 z8 | z8 | z8 | z8 | z8 | z8 | z8 | z8 | z8 | z8 | z8 | z8 | z8 | z8 | z8 | z8 | z8 | z8 | z8 | %19
[K:treble] (!>!b4 !>!g2) !>!^f>!>!g | !>!e z z2 z4 | (!>!^c'4 !>!a2) !>!^g>!>!a | !>!^f z z2 z4 | %23
 !>!d'2"_cresc." !>!b>!>!g !>!d z z2 | !>!e'2 !>!^c'>!>!a !>!e z z2 | %25
 [^fd'^f']2 [dbd']>[Bgb] [Gg] z z2 | [dad']2 [^db^d']2 [ebe']2 [f^c'f']2 | %27
 [^f^c'^f']2 [^ec'^e']2 [fc'f']2 [ec'e']2 | [^f^c'^f']4 [ebe']4 |!ff! z6 !>![^ce]2- | %30
 [ce]6 !>![de]2 | !>![^ce] z z2 z2 !>![ce]2- | [ce]6 !>![de]2 | !>![^ce] z z2 z4 | z8 | %35
 !>![E^ce] z z2 z4 | z8 | z8 | z8 | z8 | z8 | z8 | z8 | z8 | z8 | z8 | z8 | z8 | z8 | z8 | z8 | %51
 z8 | z8 | z8 | z8 | z8 | z8 | z8 | z8 | z8 | z8 | z8 | z8 | z8 | z8 | z8 | z8 | z8 | z8 | z8 | %70
 z8 | z8 | z8 | z8 | z8 | z8 | z8 | z8 | z8 | z4 [Bb]2- (3([Bb][^C^c][^D^d]) | %80
 (3z ([^F^f][^G^g]) (3([B,B][^C^c][^D^d] [Ee]2) z2 | z8 | z8 | z4 _e'2- (3(e'fg) | %84
 (3(_a_bc') (3(_efg) (3(abc' (3agf) | (3._e.a._b (3.e.f.g (3.g._a.b (3.e.f.g | %86
 (3._a._b.c' (3._e.f.g (3.a.b.c' (3.c'._d'._e' | (3._b.a.b (3._d'.c'.d' (3.b.a.b (3.d'.c'.b | %88
 (3._e.d.e (3._d'.c'.d' (3.c'._b._a (3.a.g.f | (3._e.a._b (3.e.f.g (3._a.b.c' (3.e.f.g | %90
 (3._a._b.c' (3._e.f.g (3.a.b.c' (3.c'._d'._e' | (3._b.a.b (3._d'.c'.d' (3.b.a.b (3._e'.=d'.e' | %92
 (3._e'.d'.e' (3.e'.d'.e' z2 z2 | z8 |[K:bass] z4 _E2 F2 | _E,4 D,4- | D,4 G,, z z2 | %97
 z4 F,,2 G,,2 | (3_A,,G,,A,, (3=A,,^G,,A,, (3_B,,A,,B,, (3^C,=C,^C, | D,4 C,4- | C,2 ^C,2 D, z z2 | %101
 z8 | z8 | z8 | z8 | z8 | z8 | z8 | z8 |[K:treble] z (^c/B/) (A/B/A/G/) (^F/E/D/E/) (F/E/F/G/) | %110
 (A/G/^F/G/) (A/B/^c/d/) !>!.[^CE]!>!.[DF]!>!.[CE][^F,A,] | z8 | z8 | %113
[K:treble] z (^c/B/) (A/B/A/G/) (^F/E/D/E/) (F/E/F/G/) | %114
 A/G/^F/G/ (A/B/^c/d/) !>!.[^CE]!>!.[DF]!>!.[A,D] z | z8 | z (A/B/) (^c/B/c/e/) (a/^g/a/b/ ^c') z | %117
 z8 | z (A/B/) (^c/B/c/e/) (a/^g/a/b/) ([ce]/[^B^d]/[ce]) | %119
!f! ([^ce]/[^B^d]/[ce]) ([ce]/[Bd]/[ce]) ([=B=d]/[^Ac]/[Bd]) ([Bd]/[Ac]/[Bd]) | %120
 ([Bd]/[^A^c]/[Bd]) ([Bd]/[Ac]/[Bd]) ([=Ac]/[^GB]/[Ac]) (c/A/B/c/) | %121
[K:bass]!f! !>![D,^F,A,D][^C,^C][B,,B,][A,,A,] [G,,G,][^F,,F,]!>![B,,D,F,B,][A,,A,] | %122
 !>![D,^F,A,D][^C,^C][B,,B,][A,,A,] [G,,G,][^F,,F,]!>![B,,D,F,B,][A,,A,] | %123
 !>![D,^F,A,D][^C,^C][B,,B,][A,,A,] !>![D,F,A,D][C,C]!>![D,F,^A,D][E,E] | %124
 !>![^F,^F]2 !>![E,E][F,F] [DFA]2 z2 |] %125
V:4
 x8 | x8 | x8 | x8 | x8 | x8 | x8 | x8 | x8 | x8 | x8 | x8 | x8 | x8 |[K:treble] x8 | x8 | %16
[K:bass] x8 | x8 | !>![^F,,A,,]8 | (!>![E,,A,,]6 !>!A,,2) | A,,8 | (^F,,6 !>!B,,2) | A,,6 A,,2 | %23
 [A,,B,,D,]8 | [A,,^C,E,]8 | A,,8 | ^F,4 G,2 ^G,2 | ^F,2 ^G,2 F,2 G,2 | x8 | x8 | x8 | x8 | x8 | %33
 x8 | x8 | x8 | x8 | x8 | x8 | x8 | x8 | x8 | x8 |[K:treble] x8 | x8 | x8 | x8 | x8 | x8 | x8 | %50
 x8 | x8 | x8 | x8 | x8 | x8 | x8 | x8 | x8 |[K:bass] x8 | (^D2 E2) C4 | ^C4 D4 | A,4 (^A,2 B,2) | %63
[K:treble] x8 | x8 |[K:bass] x8 | x8 | x8 | x8 | x8 | x8 | x8 | x8 | x8 | x8 | x8 | x8 | x8 | x8 | %79
 x8 | x8 | x8 | x8 | x8 | x8 | x8 | x8 | x8 | x8 | x8 | x8 | x8 | x8 | x8 | x8 | x8 | x8 | x8 | %98
 x8 | x8 | x8 | [D,F,]4 x z z2 | [D,F,^G,]4 z4 | x8 | x8 | x8 | x8 | x8 | x8 | x!8va(! x7 | %110
 x4!8va)! x4 | x8 | x8 | x!8va(! x7 | x4!8va)! x4 | x8 | x[K:treble] x6[K:bass] x | x8 | %118
 x[K:treble] x7 |[K:bass] x8 | x8 | x8 | x8 | x8 | x8 |] %125
V:5
 x8 | x8 | x8 | x8 | x8 | x8 | x8 | x8 | x8 | x8 | x8 | x8 | x8 | x8 | x8 | x8 | x8 | x8 | x8 | %19
 x8 | x8 | x8 | x8 | x8 | x8 | x8 | x8 | x8 | x8 | x8 | x8 | x8 | x8 | x8 | x8 | x8 | x8 | x8 | %38
 x8 | x8 | x8 | x8 | x8 | c4 [Bd]4- | [Bd]4 e4 | [ce]8 | [Ad]4 [Bd]4 | c4 [Bd]4- | [Bd]4 e4 | %49
 [ce]8 | [A^f]4 [Bg]4 | [dg]4 [c^f]4 | [^f^a]4 [gb]4 | x8 | x8 | [dg]4 [c^f]4 | [^f^a]4 [gb]4 | %57
 x8 | x8 | z (^e^fa-) (adag) | z (gcg-) (gcgf) | (fAfe-) (eAed) | (_eAed) (^cGcd) | c4 [Bd]4- | %64
 [Bd]4 e4 | [ce]8 | [Ad]4 [Bd]4 | c4 [Bd]4- | [Bd]4 e4 | [CAc]4 _A4 | [A,GA]2 [FG]2 [^DG]4 | %71
 [A^c]2 d2 [_A=c]4 | [A,GA]2 [FG]2 [^DG]4 | [Cc]8 | [Cc]8 | [Cc]8 | [Cc]8 | x8 | x8 | x8 | x8 | %81
 x8 | x8 | x8 | x8 | x8 | x8 | x8 | x8 | x8 | x8 | x8 | x8 | x8 | x8 | x8 | x8 | x8 | x8 | x8 | %100
 x8 | x8 | x8 | x8 | x8 | x8 | x8 | x8 | x8 | x8 | x8 | x8 | x8 | x8 | x8 | x8 | x8 | x8 | x8 | %119
 x8 | x8 | x8 | x8 | x8 | x8 |] %125

